!!!OTL: ES BLIES EIN JAEGER
!!!ARE: Europa, Mitteleuropa, Deutschland
!!!SCT: F0661A
!!!YEM: Copyright 1995, estate of Helmut Schaffrath.
**kern
*ICvox
*Ivox
*M2/4
*k[f#c#g#]
*A:
{8e
=1
8a
8a
16a
16a
8b
=2
8cc#
8ee
8a}
{8b
=3
8cc#
8ee
8a}
{8a
=4
16b
16b
16b
16b
16b
16a
16g#
16a
=5
16b
16a
16g#
16f#
8e
8r}
=6
{8a
8a
8a
8cc#
=7
8b
8b
8.b}
{16b
=8
16cc#
16b
16cc#
16dd
8ee
8a
=9
16cc#
16b
8b
8a}
==
!!!AGN: Staende -, Jaeger - Lied, Liebe, Tod
!!!ONB: ESAC (Essen Associative Code) Database: FINK
!!!AMT: simple duple
!!!AIN: vox
!!!EED: Helmut Schaffrath
!!!EEV: 1.0
*-
